X: 44
T:Ffarwel Ednyfed Fychan
T:Ednyfed Fychan's Farewell
M:3/4
L:1/8
Q:200
C:Trad
S:51 Welsh Airs
R:Waltz
A:Wales
H:From a facsimile c.1840: A Choice Collection of Fifty-One Welsh Airs
H:adapted for The Harp, Piano-Forte, Harpsichord,
H:Violin, or Flute by Edward Jones
H:"Harper to His Late Majesty King George IV, when
H:Prince of Wales".
Z:brian_martin12345@yahoo.com
K:Eb
(3Bcd|e2B2A2|({GA}G3F)E2|F2B2A2|G2FGE2|G>=AB2c2|dcdef2|ecdBc=A|B4:||!
de|(f3g)e2|d2cdB2|e2gfed|{cd}c4d2|e2e>fe>f|d2d>ed>e|c2c>dc>d|cBcdec|!
{Bc}B4A2|G2e2G2|A3B/A/G2|F2E2D2|{EF}E4E2|F2A2G2|{G}F2E2{DE}D2|E4:||
